X:206
T:Selfe,The,3voices. JGi.206
M:6/8
L:1/8
Q:3/8=100
S:Joshua Gibbons MS,1823,Tealby,Lincs.
R:jig
O:Tealby,Lincolnshire
Z:VMP/R.Greig, 2009
K:C
[V:1]|:G|geg ceg|gfe d2g|egf efd|Bdd d2G|
[V:2]|:G|ECEG2e|edcB3|ced cBA|GEGB2G|
[V:3]|:z|C,3C,3|C3G,3|C,3D,3|G,3-G,2z|
[V:1]geg ceg|gfe d2f|ege fdB|c2cc2:|
[V:2]ECEG2e|edcB2G|c2c dBG|E2EE2:|
[V:3]C,3C,3|C3G,3|E,3G,3|C,2C,C,2:|
[V:1]|:g|egc’ c’ba|agf e2c|egc egc|Bdd d2g|
[V:2]|:z|e2gc2z|fedc2z|E2EE2E|DGBB2z|
[V:3]|:z|C,2C,C,2z|F,,3C,2z|C,2C,C,2z|G,,2G,,G,,2z|
[V:1]egc’ c’ba|agfe2c|cgc fdB|c2cc3:|
[V:2]e2gc2z|fedc2z|G3F3|E2EE3:|
[V:3]C,2C,C,2z|F,,2F,,F,,2z|G,3G,,3|C,3-C,3:|

